X:176
T:Successful Campain or Bath Frolick [sic]
M:C
L:1/8
B:Thompson's Compleat Collection of 200 Favourite Country Dances, vol. 3 (London, 1773)
Z:Transcribed and edited by Flynn Titford-Mock, 2007
Z:abc's:AK/Fiddler's Companion
K:G
(G2 G)B (A2 A)c | BGBd g4 | gfed edcB | cBAG GFED | (G2 G)B (A2 A)c |
BGBd g4 | gfed efge | fde^c d4::d2 d=f e2 d2 | c2B2c2A2 | c2 ce d2c2 |
B2A2B2G2 | (G2 G)B (A2 A)c | BGBd g4 | gfed edcB | AGAB G4 :|

